X:1
T:La Serva Padrona
T:La Serva Padrona 
T:Pergolesi
T:Intermezzo Primo Introduction "Aspettare e non venire" 
C:Pergolesi
%%score 1 { ( 2 4 ) | 3 }
L:1/8
Q:1/4=116
M:4/4
K:Bb
V:1 bass nm="Bassoon"
V:2 treble nm="Grand Piano"
V:4 treble 
V:3 bass 
V:1
"^Allegretto" z8 | z8 | z8 | z8 |"^Uberto" z8 | z8 | B,2 B,2 B,4- | B,4 B,,2 z2 | %8
w: ||||||A- spet- ta-|* re|
 z D, C, B,, F,2 F,2 | C2 C2 C4- | C4 C,2 z2 | z E, D, C, G,2 G,2 | D2 D2 D4- | D4 D,2 z2 | %14
w: e non ve- ni- re,|sta- re~a let-|* te|e non dor mi- re,|ben ser- vi-|* re|
 z F, =E, D, A,2 A,2 | B,4 A,4 | G,4 F,4 | B,,A,, B,,=B,, C,4 | =B,,4 _B,,A,, B,,=B,, | %19
w: e non gra- di- re,|son tre|co- se|da _ mo- * ri-|re, da _ mo- *|
 C,4 F,,2 z2 | z8 | z8 | z8 |"^1." B,3 A, G,=E, F,2 | G,3 F, _E,C, D,2 | E3 D CA, B,2 | %26
w: ri- re.||||A- spet- ta- * re,|star- re~a let- * to,|ben ser- vi- * re,|
 z D, C, B,, F, D, C, B,, | F, D, C, B,, F,2 F,2 | E2 E2 E3 F, | E2 E2 E3 F, | E2 E2 D4 | %31
w: e non ven ire e non dor-|mire e non gra- di- re,|son tre co- se|da mo- ri- re,|da mo- ri-|
 C2 !fermata!z D/ B,/ F D C B, | F, F,2 D/ B,/ F D C B, | F, F,2 D/ B,/ F D C B, | %34
w: re. As- petta- re e non vi-|ni- re, stare a letto e non dor-|mi- re, ben ser- vire e non gra-|
 F, D C B, F, D C B, | F, D C B, F, D C B, | A,/G,/ F, z F, B,2 z2 | C2 z F, D D3 | E E3 F F3 | %39
w: dire, e non ve- nire e non dor-|mire, e non gra- dire e non gra-|di- * re, son tre,|tre, tre co- se,|co- se, co- se,|
 (E,D,) (E,=E,) F,4 | =E,4 (_E,D,) (E,=E,) | F,4 B,,2 z2 | z8 | z8 | z8 | z8 | z8 | z8 |] %48
w: da * mo- * ri-|re, da * mo- *|ri- re.|||||||
V:2
!f! BB, B,B/A/ G=E/G/ F2 | GG, G,G/F/ _EC/E/ D2 | eE Ee/d/ cA/c/ B2 | (E/F/D/F/ E/F/=E/G/ F4) | %4
 =E4 (_E/F/D/F/ E/F/=E/G/ | F2) A,2 B,2 z2 |!p! B2 B2 B4- | B4 z (B,/A,/ B,)(B,/A,/ | %8
 B,)DCB, F2 z2 | c2 c2 c4- | c4 z (C/=B,/ C)(C/B,/ | C)EDC G2 z2 | d2 d2 d4- | %13
 d4 z (D/^C/ D)(D/C/ | D)F=ED A2 z2 | B4 A4 | G4 F4 | (B,/C/A,/C/ B,/C/=B,/D/ C4) | %18
 =B,4!p! (_B,/C/A,/C/ B,/C/=B,/D/ | C4)!f! (FB/G/ A)(B/G/ | A)fFf!f! F(B/G/ A)(B/G/ | %21
 A)fFf F(B/G/ A)(B/G/ | A)(F/A/ G2) [A,F]2 z2 | BB, B,B/A/ G=E/G/ F2 | GG, G,G/F/ _EC/E/ D2 | %25
 eE Ee/d/ cA/c/ B2 | z DCB, FDCB, | FDCB, F2 z2 |!f! e2 e2 e4 | e2 e2 e4 | e2 e2 d4 | %31
 [Ac]2 !fermata!z!p! d/B/"_cresc." fdcB | F F2- F fdcB | F F2- F fdcB | FdcB FdcB | FdcB FdcB | %36
 (A/G/F) z2!p! B (B,/C/ B,).B, | c (A,/B,/ A,.A,) d (B,/C/ B,).B, | d (C/D/ C.C) f (D/E/ D).D | %39
 (E/F/D/F/ E/F/=E/G/ F4) | =E4!p! (_E/F/D/F/ E/F/=E/G/ | F4)!f! BB, B,B/A/ | G=E/G/ F2 GG, G,G/F/ | %43
 _EC/E/ D2 eE Ee/d/ | cA/c/ B2 (E/F/D/F/ E/F/=E/G/ | F4) =E4 | (_E/F/D/F/ E/F/=E/G/ F2 A,2) | %47
 B,B B,2 !fermata!z4 |] %48
V:3
 B,B,,B,,B, G,=E, F,2 | G,G,,G,,G, _E,C, D,2 | EE,E,E CA, B,2 | E,D,E,=E, F,F,F,F, | %4
 =E,E,E,E, _E,D,E,=E, | F,F,F,,F,, B,,2 z2 | B,,B,B,,B, B,,B,B,,B, | B,,B,B,,B, B,,2 z2 | %8
 z D,C,B,, F,2 z2 | C,CC,C C,CC,C | C,CC,C C,2 z2 | z E,D,C, G,2 z2 | D,DD,D D,DD,D | %13
 D,DD,D D,2 z2 | z F,=E,D, A,,2 A,2- | A,2 G,4 F,2- | F,2 =E,2 z2 A,,2 | B,,A,,B,,=B,, C,C,C,C, | %18
 =B,,4 _B,,A,,B,,=B,, | C,C,C,C, F,(=E,F,)(E, | F,2) z2 F,(=E,F,)(E, | F,2) z2 F,(=E,F,)(E, | %22
 F,)A,,B,,C, F,,2 z2 | B,B,,B,,B, G,=E, F,2 | G,G,,G,,G, _E,C, D,2 | EE,E,E CA, B,2 | %26
 z D,C,B,, F,D,C,B,, | F,D,C,B,, F,A,C,F, | F,,F,F,,F, F,,F,F,,F, | F,,F,F,,F, F,,F,F,,F, | %30
 F,,F,F,,F, =E,E,E,E, | F,2 !fermata!z2 z [D,D][C,C][B,,B,] | %32
 [F,,F,] [F,,F,]3 z [D,D][C,C][B,,B,] | [F,,F,] [F,,F,]3 z DCB, | F,DCB, F,DCB, | F,DCB, F,DCB, | %36
 F,F,/G,/ F,E, D,4 | A,,4 B,,4 | C,4 D,4 | E,D,E,=E, F,F,F,F, | =E,4 _E,D,E,=E, | %41
 F,F,F,F, B,B,,B,,B, | G,=E, F,2 G,G,,G,,G, | _E,C, D,2 EE,E,E | CA, B,2 E,D,E,=E, | %45
 F,F,F,F, =E,E,E,E, | _E,D,E,=E, F,F,[F,,F,][F,,F,] | B,,2 z2 !fermata!z4 |] %48
V:4
 x8 | x8 | x8 | x8 | x8 | x8 | x8 | x8 | x8 | x8 | x8 | x8 | x8 | x8 | x8 | x8 | x8 | x8 | x8 | %19
 x8 | x8 | x8 | z C [DF]C/B,/ x4 | x8 | x8 | x8 | x8 | x8 | AcFA c4 | AcFA c4 | AcFA B4 | x8 | %32
 x3 d/B/ x4 | x3 d/B/ x4 | x8 | x8 | x8 | x8 | x8 | x8 | x8 | x8 | x8 | x8 | x8 | x8 | x8 | x8 |] %48

